X:312
T: Ich w
N: P0574
O: Lothringen
S: PINCK, Louis: Verklingende Weisen Bd 4, Kassel 1939]
R: geistliches, religiöses Lied]
M: 3/4
L: 1/8
K: G
D2 | G2B2BB | BBG2BB | A2z2
G2 | B3dB2 | A2G2d2 | d4
B2 | B2BdB2 | A2G2A2 | G4

